polaris-icons/icons/new-icons/TaxMajor.svg

<svg width="20" height="20" viewBox="0 0 20 20" fill="none" xmlns="http://www.w3.org/2000/svg">
<path d="M9 10C9 10.5523 8.55228 11 8 11C7.44772 11 7 10.5523 7 10C7 9.44772 7.44772 9 8 9C8.55228 9 9 9.44772 9 10Z" fill="#4A4A4A"/>
<path d="M12 15C12.5523 15 13 14.5523 13 14C13 13.4477 12.5523 13 12 13C11.4477 13 11 13.4477 11 14C11 14.5523 11.4477 15 12 15Z" fill="#4A4A4A"/>
<path d="M12.7803 10.2803C13.0732 9.98744 13.0732 9.51256 12.7803 9.21967C12.4874 8.92678 12.0126 8.92678 11.7197 9.21967L7.21967 13.7197C6.92678 14.0126 6.92678 14.4874 7.21967 14.7803C7.51256 15.0732 7.98744 15.0732 8.28033 14.7803L12.7803 10.2803Z" fill="#4A4A4A"/>
<path fill-rule="evenodd" clip-rule="evenodd" d="M6.4182 3.54456C6.15649 2.695 6.85425 2 7.58968 2H12.4103C13.1458 2 13.8435 2.695 13.5818 3.54456C13.3482 4.30307 12.9335 4.99282 12.384 5.51485C13.7605 6.13916 14.8702 7.29401 15.4168 8.77299L16.4628 11.6034C17.6091 14.7052 15.3142 18 12.0073 18H7.99268C4.68582 18 2.39088 14.7052 3.5372 11.6034L4.58323 8.77299C5.12981 7.294 6.23953 6.13915 7.61604 5.51485C7.06651 4.99282 6.65187 4.30307 6.4182 3.54456ZM8.00055 3.5C8.42697 4.45368 9.21166 5 10 5C10.7884 5 11.5731 4.45368 11.9995 3.5H8.00055ZM5.99022 9.29297C6.61052 7.61451 8.21058 6.5 10 6.5C11.7894 6.5 13.3895 7.61451 14.0098 9.29297L15.0558 12.1234C15.8401 14.2457 14.2699 16.5 12.0073 16.5H7.99268C5.73009 16.5 4.15987 14.2457 4.9442 12.1234L5.99022 9.29297Z" fill="#4A4A4A"/>
</svg>

<svg viewBox="0 0 20 20" xmlns="http://www.w3.org/2000/svg"><path d="M9 10a1 1 0 1 1-2 0 1 1 0 0 1 2 0Z" fill="#5C5F62"/><path d="M12 15a1 1 0 1 0 0-2 1 1 0 0 0 0 2Z" fill="#5C5F62"/><path d="M12.78 10.28a.75.75 0 1 0-1.06-1.06l-4.5 4.5a.75.75 0 1 0 1.06 1.06l4.5-4.5Z" fill="#5C5F62"/><path fill-rule="evenodd" d="M6.418 3.545c-.262-.85.436-1.545 1.172-1.545h4.82c.736 0 1.434.695 1.172 1.545a4.585 4.585 0 0 1-1.198 1.97 5.774 5.774 0 0 1 3.033 3.258l1.046 2.83c1.146 3.102-1.149 6.397-4.456 6.397h-4.014c-3.307 0-5.602-3.295-4.456-6.397l1.046-2.83a5.773 5.773 0 0 1 3.033-3.258 4.586 4.586 0 0 1-1.198-1.97Zm1.583-.045c.426.954 1.21 1.5 1.999 1.5.788 0 1.573-.546 2-1.5h-4Zm-2.01 5.793a4.275 4.275 0 0 1 8.019 0l1.046 2.83c.784 2.123-.786 4.377-3.049 4.377h-4.014c-2.263 0-3.833-2.254-3.049-4.377l1.046-2.83Z" fill="#5C5F62"/></svg>
